report_00007_2020-12-11T15:55:29.892Z/bootup-time/comparison/line/11_vs_12.svg

<svg width="640" height="500" xmlns="http://www.w3.org/2000/svg" xmlns:xlink="http://www.w3.org/1999/xlink"><path fill="#fff" d="M0 0h640v500H0z"/><defs><path id="d" stroke-width=".222" stroke="currentColor" d="M-1-1h2v2h-2z"/><path id="b" stroke-width=".222" stroke="currentColor" d="M0-1.33l-1.33 2h2.66z"/><path id="f" stroke-width=".222" stroke="currentColor" d="M0 1.33L1.265.411.782-1.067l-1.564-.009-.483 1.487z"/><use xlink:href="#b" id="c" stroke="currentColor" transform="rotate(180)"/><use xlink:href="#d" id="e" stroke="currentColor" transform="rotate(45)"/><circle id="a" stroke-width=".222" stroke="currentColor" cx="0" cy="0" r="1"/></defs><g fill="none" color="#000" stroke="currentColor"><path stroke="#000" d="M45.6 340.8h9m560.4 0h-9"/><text transform="translate(37.3 344.7)" stroke="none" fill="#000" font-family="Arial" font-size="12" text-anchor="end"><tspan>20</tspan></text></g><g fill="none" color="#000" stroke="currentColor"><path stroke="#000" d="M45.6 286.6h9m560.4 0h-9"/><text transform="translate(37.3 290.5)" stroke="none" fill="#000" font-family="Arial" font-size="12" text-anchor="end"><tspan>25</tspan></text></g><g fill="none" color="#000" stroke="currentColor"><path stroke="#000" d="M45.6 232.3h9m560.4 0h-9"/><text transform="translate(37.3 236.2)" stroke="none" fill="#000" font-family="Arial" font-size="12" text-anchor="end"><tspan>30</tspan></text></g><g fill="none" color="#000" stroke="currentColor"><path stroke="#000" d="M45.6 178.1h9m560.4 0h-9"/><text transform="translate(37.3 182)" stroke="none" fill="#000" font-family="Arial" font-size="12" text-anchor="end"><tspan>35</tspan></text></g><g fill="none" color="#000" stroke="currentColor"><path stroke="#000" d="M45.6 123.9h9m560.4 0h-9"/><text transform="translate(37.3 127.8)" stroke="none" fill="#000" font-family="Arial" font-size="12" text-anchor="end"><tspan>40</tspan></text></g><g fill="none" color="#000" stroke="currentColor"><path stroke="#000" d="M45.6 69.6h9m560.4 0h-9"/><text transform="translate(37.3 73.5)" stroke="none" fill="#000" font-family="Arial" font-size="12" text-anchor="end"><tspan>45</tspan></text></g><g fill="none" color="#000" stroke="currentColor"><path stroke="#000" d="M45.6 392v-9m0-364.9v9"/><text transform="translate(45.6 413.9)" stroke="none" fill="#000" font-family="Arial" font-size="12" text-anchor="middle"><tspan>0</tspan></text></g><g fill="none" color="#000" stroke="currentColor"><path stroke="#000" d="M103.1 392v-9m0-364.9v9"/><text transform="translate(103.1 413.9)" stroke="none" fill="#000" font-family="Arial" font-size="12" text-anchor="middle"><tspan>10</tspan></text></g><g fill="none" color="#000" stroke="currentColor"><path stroke="#000" d="M160.6 392v-9m0-364.9v9"/><text transform="translate(160.6 413.9)" stroke="none" fill="#000" font-family="Arial" font-size="12" text-anchor="middle"><tspan>20</tspan></text></g><g fill="none" color="#000" stroke="currentColor"><path stroke="#000" d="M218.1 392v-9m0-364.9v9"/><text transform="translate(218.1 413.9)" stroke="none" fill="#000" font-family="Arial" font-size="12" text-anchor="middle"><tspan>30</tspan></text></g><g fill="none" color="#000" stroke="currentColor"><path stroke="#000" d="M275.7 392v-9m0-364.9v9"/><text transform="translate(275.7 413.9)" stroke="none" fill="#000" font-family="Arial" font-size="12" text-anchor="middle"><tspan>40</tspan></text></g><g fill="none" color="#000" stroke="currentColor"><path stroke="#000" d="M333.2 392v-9m0-364.9v9"/><text transform="translate(333.2 413.9)" stroke="none" fill="#000" font-family="Arial" font-size="12" text-anchor="middle"><tspan>50</tspan></text></g><g fill="none" color="#000" stroke="currentColor"><path stroke="#000" d="M390.7 392v-9m0-364.9v9"/><text transform="translate(390.7 413.9)" stroke="none" fill="#000" font-family="Arial" font-size="12" text-anchor="middle"><tspan>60</tspan></text></g><g fill="none" color="#000" stroke="currentColor"><path stroke="#000" d="M448.2 392v-9m0-364.9v9"/><text transform="translate(448.2 413.9)" stroke="none" fill="#000" font-family="Arial" font-size="12" text-anchor="middle"><tspan>70</tspan></text></g><g fill="none" color="#000" stroke="currentColor"><path stroke="#000" d="M505.7 392v-9m0-364.9v9"/><text transform="translate(505.7 413.9)" stroke="none" fill="#000" font-family="Arial" font-size="12" text-anchor="middle"><tspan>80</tspan></text></g><g fill="none" color="#000" stroke="currentColor"><path stroke="#000" d="M563.2 392v-9m0-364.9v9"/><text transform="translate(563.2 413.9)" stroke="none" fill="#000" font-family="Arial" font-size="12" text-anchor="middle"><tspan>90</tspan></text></g><path stroke="#000" d="M45.6 18.1V392H615V18.1H45.6z" fill="none" color="#000"/><text transform="translate(504.2 431.9)" stroke="none" fill="#000" font-family="Arial" font-size="12" text-anchor="end" color="#000"><tspan>pages+cached+noexternal+nofonts+nosvg+noimg</tspan></text><path stroke="#9400D3" d="M512.5 428h42.2M45.6 131.5l5.8 13.3 5.7-.8 5.8 4.3 5.7 1.5 5.8-9.8 5.7-12.2 5.8 4.2 5.7-6.5 5.8 11.5 5.7-29.9 5.8 28.3 5.7-18.5 5.8 11.1 5.7-6.5 5.8 31.9 5.7-18.7 5.8 2.3 5.7-6.9 5.8-3.3 5.7 9.6 5.8 2.1 5.7-31.7 5.8 26.2 5.7 21 5.8-39.1 5.7 35.4 5.8-13.2 5.7-14.9 5.8 24.8 5.7-1.2 5.8-29.8 5.7 12.7 5.8 2.1 5.8 8.5 5.7-4.8 5.8 2.7 5.7 9.2 5.8-20.6 5.7-1.1 5.8-2.2 5.7 4.1 5.8 12.9 5.7 8.8 5.8-18.7 5.7-7.2 5.8 19.5 5.7-17.3 5.8 24.2 5.7-15.1 5.8 11.5 5.7-5.1 5.8-53.5 5.7 38.6 5.8 15.3 5.7-2.8h5.8l5.7-9.7 5.8 16.9 5.7-2.5 5.8-37.3 5.7 30.1 5.8-15 5.7 4 5.8-7.1 5.7 32.5 5.8-34.7 5.8 43.3 5.7-28.8 5.8-18.4 5.7-26.4 5.8 52.1 5.7-7.2 5.8-99.8 5.7 97.2 5.8 5.6 5.7-6 5.8 23.8 5.7-27.7 5.8 27.2 5.7-15.2 5.8-6.9 5.7 14.9 5.8 4.6 5.7-25.2 5.8 8.8 5.7.1 5.8 8.7 5.7 1.5 5.8-2.4 5.7 2.7 5.8-16.9 5.7.7 5.8-11.3 5.7 22.2 5.8 14.1 5.7-28 5.8 24.2 5.7-23.9 5.8 8" fill="none" color="#000"/><text transform="translate(504.2 449.9)" stroke="none" fill="#000" font-family="Arial" font-size="12" text-anchor="end" color="#000"><tspan>pages+cached+noexternal+nofonts+nosvg+noimg+nocss</tspan></text><path stroke="#009E73" d="M512.5 446h42.2M45.6 369.7l5.8-13.6 5.7 6.1 5.8.7 5.7-6 5.8-8.2 5.7 16.4 5.8 2 5.7 4.3 5.8-17.2 5.7 2.8 5.8 12.6 5.7-5.1 5.8 20.3 5.7-20.1 5.8-19.9 5.7 23.7 5.8-19.6 5.7-6.1 5.8 13 5.7-330.5 5.8 337.1 5.7-3.3 5.8.8 5.7 8.3 5.8 4.3 5.7-22.1 5.8 12 5.7-12.3 5.8 18.5 5.7-6.7 5.8-.6 5.7-.4 5.8.7 5.8 10.9 5.7-14.5 5.8 9.7 5.7-.8 5.8-2.7 5.7-.9 5.8-4.1 5.7 19.4 5.8-20.3 5.7.2 5.8-1.9 5.7-8 5.8 10.2 5.7 13.5 5.8-17.2 5.7 21 5.8-16.7 5.7 7 5.8-14.9 5.7 1.3 5.8 2.5 5.7 2.9 5.8 11.4 5.7 1.7 5.8-4.3 5.7-17.9 5.8 33.6 5.7-11 5.8-28.7 5.7 33.1 5.8-6.1 5.7-11.3 5.8 1.7 5.8-8.2 5.7 5.2 5.8-7.4 5.7-.2 5.8 26.9 5.7-18.4 5.8 12.1 5.7-11.8 5.8 12.9 5.7-23.6 5.8 16.4 5.7 12.8 5.8-7.6 5.7-4.7 5.8-3.5 5.7-13 5.8-2.3 5.7 8.7 5.8 21.1 5.7-11.3 5.8-8.2 5.7-7.5 5.8 4.8 5.7 14.5 5.8-1.1 5.7-1.5 5.8-3.2 5.7-4 5.8 13.6 5.7-8.6 5.8 13.3 5.7-34.5 5.8 23.1" fill="none" color="#000"/><text transform="translate(504.2 467.9)" stroke="none" fill="#000" font-family="Arial" font-size="12" text-anchor="end" color="#000"><tspan>score p10=1282</tspan></text><path stroke="#56B4E9" d="M512.5 464h42.2" fill="none" color="#000"/><g><text transform="translate(504.2 485.9)" stroke="none" fill="#000" font-family="Arial" font-size="12" text-anchor="end" color="#000"><tspan>score median=3500</tspan></text><path stroke="#E69F00" d="M512.5 482h42.2" fill="none" color="#000"/></g><g fill="none" color="#000" stroke="currentColor"><path stroke="#000" d="M45.6 18.1V392H615V18.1H45.6z"/></g></svg>

<?xml version="1.0" encoding="utf-8"  standalone="no"?>
<svg 
 width="640" height="500"
 viewBox="0 0 640 500"
 xmlns="http://www.w3.org/2000/svg"
 xmlns:xlink="http://www.w3.org/1999/xlink"
>

<title>Gnuplot</title>
<desc>Produced by GNUPLOT 5.4 patchlevel 0 </desc>

<g id="gnuplot_canvas">

<rect x="0" y="0" width="640" height="500" fill="#ffffff"/>
<defs>

	<circle id='gpDot' r='0.5' stroke-width='0.5' stroke='currentColor'/>
	<path id='gpPt0' stroke-width='0.222' stroke='currentColor' d='M-1,0 h2 M0,-1 v2'/>
	<path id='gpPt1' stroke-width='0.222' stroke='currentColor' d='M-1,-1 L1,1 M1,-1 L-1,1'/>
	<path id='gpPt2' stroke-width='0.222' stroke='currentColor' d='M-1,0 L1,0 M0,-1 L0,1 M-1,-1 L1,1 M-1,1 L1,-1'/>
	<rect id='gpPt3' stroke-width='0.222' stroke='currentColor' x='-1' y='-1' width='2' height='2'/>
	<rect id='gpPt4' stroke-width='0.222' stroke='currentColor' fill='currentColor' x='-1' y='-1' width='2' height='2'/>
	<circle id='gpPt5' stroke-width='0.222' stroke='currentColor' cx='0' cy='0' r='1'/>
	<use xlink:href='#gpPt5' id='gpPt6' fill='currentColor' stroke='none'/>
	<path id='gpPt7' stroke-width='0.222' stroke='currentColor' d='M0,-1.33 L-1.33,0.67 L1.33,0.67 z'/>
	<use xlink:href='#gpPt7' id='gpPt8' fill='currentColor' stroke='none'/>
	<use xlink:href='#gpPt7' id='gpPt9' stroke='currentColor' transform='rotate(180)'/>
	<use xlink:href='#gpPt9' id='gpPt10' fill='currentColor' stroke='none'/>
	<use xlink:href='#gpPt3' id='gpPt11' stroke='currentColor' transform='rotate(45)'/>
	<use xlink:href='#gpPt11' id='gpPt12' fill='currentColor' stroke='none'/>
	<path id='gpPt13' stroke-width='0.222' stroke='currentColor' d='M0,1.330 L1.265,0.411 L0.782,-1.067 L-0.782,-1.076 L-1.265,0.411 z'/>
	<use xlink:href='#gpPt13' id='gpPt14' fill='currentColor' stroke='none'/>
	<filter id='textbox' filterUnits='objectBoundingBox' x='0' y='0' height='1' width='1'>
	  <feFlood flood-color='#FFFFFF' flood-opacity='1' result='bgnd'/>
	  <feComposite in='SourceGraphic' in2='bgnd' operator='atop'/>
	</filter>
	<filter id='greybox' filterUnits='objectBoundingBox' x='0' y='0' height='1' width='1'>
	  <feFlood flood-color='lightgrey' flood-opacity='1' result='grey'/>
	  <feComposite in='SourceGraphic' in2='grey' operator='atop'/>
	</filter>
</defs>
<g fill="none" color="#FFFFFF" stroke="black" stroke-width="1.00" stroke-linecap="butt" stroke-linejoin="miter">
</g>
<g fill="none" color="black" stroke="currentColor" stroke-width="1.00" stroke-linecap="butt" stroke-linejoin="miter">
	<path stroke='black'  d='M45.6,340.8 L54.6,340.8 M615.0,340.8 L606.0,340.8  '/>	<g transform="translate(37.3,344.7)" stroke="none" fill="black" font-family="Arial" font-size="12.00"  text-anchor="end">
		<text><tspan font-family="Arial" > 20</tspan></text>
	</g>
</g>
<g fill="none" color="black" stroke="currentColor" stroke-width="1.00" stroke-linecap="butt" stroke-linejoin="miter">
	<path stroke='black'  d='M45.6,286.6 L54.6,286.6 M615.0,286.6 L606.0,286.6  '/>	<g transform="translate(37.3,290.5)" stroke="none" fill="black" font-family="Arial" font-size="12.00"  text-anchor="end">
		<text><tspan font-family="Arial" > 25</tspan></text>
	</g>
</g>
<g fill="none" color="black" stroke="currentColor" stroke-width="1.00" stroke-linecap="butt" stroke-linejoin="miter">
	<path stroke='black'  d='M45.6,232.3 L54.6,232.3 M615.0,232.3 L606.0,232.3  '/>	<g transform="translate(37.3,236.2)" stroke="none" fill="black" font-family="Arial" font-size="12.00"  text-anchor="end">
		<text><tspan font-family="Arial" > 30</tspan></text>
	</g>
</g>
<g fill="none" color="black" stroke="currentColor" stroke-width="1.00" stroke-linecap="butt" stroke-linejoin="miter">
	<path stroke='black'  d='M45.6,178.1 L54.6,178.1 M615.0,178.1 L606.0,178.1  '/>	<g transform="translate(37.3,182.0)" stroke="none" fill="black" font-family="Arial" font-size="12.00"  text-anchor="end">
		<text><tspan font-family="Arial" > 35</tspan></text>
	</g>
</g>
<g fill="none" color="black" stroke="currentColor" stroke-width="1.00" stroke-linecap="butt" stroke-linejoin="miter">
	<path stroke='black'  d='M45.6,123.9 L54.6,123.9 M615.0,123.9 L606.0,123.9  '/>	<g transform="translate(37.3,127.8)" stroke="none" fill="black" font-family="Arial" font-size="12.00"  text-anchor="end">
		<text><tspan font-family="Arial" > 40</tspan></text>
	</g>
</g>
<g fill="none" color="black" stroke="currentColor" stroke-width="1.00" stroke-linecap="butt" stroke-linejoin="miter">
	<path stroke='black'  d='M45.6,69.6 L54.6,69.6 M615.0,69.6 L606.0,69.6  '/>	<g transform="translate(37.3,73.5)" stroke="none" fill="black" font-family="Arial" font-size="12.00"  text-anchor="end">
		<text><tspan font-family="Arial" > 45</tspan></text>
	</g>
</g>
<g fill="none" color="black" stroke="currentColor" stroke-width="1.00" stroke-linecap="butt" stroke-linejoin="miter">
	<path stroke='black'  d='M45.6,392.0 L45.6,383.0 M45.6,18.1 L45.6,27.1  '/>	<g transform="translate(45.6,413.9)" stroke="none" fill="black" font-family="Arial" font-size="12.00"  text-anchor="middle">
		<text><tspan font-family="Arial" > 0</tspan></text>
	</g>
</g>
<g fill="none" color="black" stroke="currentColor" stroke-width="1.00" stroke-linecap="butt" stroke-linejoin="miter">
	<path stroke='black'  d='M103.1,392.0 L103.1,383.0 M103.1,18.1 L103.1,27.1  '/>	<g transform="translate(103.1,413.9)" stroke="none" fill="black" font-family="Arial" font-size="12.00"  text-anchor="middle">
		<text><tspan font-family="Arial" > 10</tspan></text>
	</g>
</g>
<g fill="none" color="black" stroke="currentColor" stroke-width="1.00" stroke-linecap="butt" stroke-linejoin="miter">
	<path stroke='black'  d='M160.6,392.0 L160.6,383.0 M160.6,18.1 L160.6,27.1  '/>	<g transform="translate(160.6,413.9)" stroke="none" fill="black" font-family="Arial" font-size="12.00"  text-anchor="middle">
		<text><tspan font-family="Arial" > 20</tspan></text>
	</g>
</g>
<g fill="none" color="black" stroke="currentColor" stroke-width="1.00" stroke-linecap="butt" stroke-linejoin="miter">
	<path stroke='black'  d='M218.1,392.0 L218.1,383.0 M218.1,18.1 L218.1,27.1  '/>	<g transform="translate(218.1,413.9)" stroke="none" fill="black" font-family="Arial" font-size="12.00"  text-anchor="middle">
		<text><tspan font-family="Arial" > 30</tspan></text>
	</g>
</g>
<g fill="none" color="black" stroke="currentColor" stroke-width="1.00" stroke-linecap="butt" stroke-linejoin="miter">
	<path stroke='black'  d='M275.7,392.0 L275.7,383.0 M275.7,18.1 L275.7,27.1  '/>	<g transform="translate(275.7,413.9)" stroke="none" fill="black" font-family="Arial" font-size="12.00"  text-anchor="middle">
		<text><tspan font-family="Arial" > 40</tspan></text>
	</g>
</g>
<g fill="none" color="black" stroke="currentColor" stroke-width="1.00" stroke-linecap="butt" stroke-linejoin="miter">
	<path stroke='black'  d='M333.2,392.0 L333.2,383.0 M333.2,18.1 L333.2,27.1  '/>	<g transform="translate(333.2,413.9)" stroke="none" fill="black" font-family="Arial" font-size="12.00"  text-anchor="middle">
		<text><tspan font-family="Arial" > 50</tspan></text>
	</g>
</g>
<g fill="none" color="black" stroke="currentColor" stroke-width="1.00" stroke-linecap="butt" stroke-linejoin="miter">
	<path stroke='black'  d='M390.7,392.0 L390.7,383.0 M390.7,18.1 L390.7,27.1  '/>	<g transform="translate(390.7,413.9)" stroke="none" fill="black" font-family="Arial" font-size="12.00"  text-anchor="middle">
		<text><tspan font-family="Arial" > 60</tspan></text>
	</g>
</g>
<g fill="none" color="black" stroke="currentColor" stroke-width="1.00" stroke-linecap="butt" stroke-linejoin="miter">
	<path stroke='black'  d='M448.2,392.0 L448.2,383.0 M448.2,18.1 L448.2,27.1  '/>	<g transform="translate(448.2,413.9)" stroke="none" fill="black" font-family="Arial" font-size="12.00"  text-anchor="middle">
		<text><tspan font-family="Arial" > 70</tspan></text>
	</g>
</g>
<g fill="none" color="black" stroke="currentColor" stroke-width="1.00" stroke-linecap="butt" stroke-linejoin="miter">
	<path stroke='black'  d='M505.7,392.0 L505.7,383.0 M505.7,18.1 L505.7,27.1  '/>	<g transform="translate(505.7,413.9)" stroke="none" fill="black" font-family="Arial" font-size="12.00"  text-anchor="middle">
		<text><tspan font-family="Arial" > 80</tspan></text>
	</g>
</g>
<g fill="none" color="black" stroke="currentColor" stroke-width="1.00" stroke-linecap="butt" stroke-linejoin="miter">
	<path stroke='black'  d='M563.2,392.0 L563.2,383.0 M563.2,18.1 L563.2,27.1  '/>	<g transform="translate(563.2,413.9)" stroke="none" fill="black" font-family="Arial" font-size="12.00"  text-anchor="middle">
		<text><tspan font-family="Arial" > 90</tspan></text>
	</g>
</g>
<g fill="none" color="black" stroke="currentColor" stroke-width="1.00" stroke-linecap="butt" stroke-linejoin="miter">
</g>
<g fill="none" color="black" stroke="currentColor" stroke-width="1.00" stroke-linecap="butt" stroke-linejoin="miter">
	<path stroke='black'  d='M45.6,18.1 L45.6,392.0 L615.0,392.0 L615.0,18.1 L45.6,18.1 Z  '/></g>
<g fill="none" color="black" stroke="currentColor" stroke-width="1.00" stroke-linecap="butt" stroke-linejoin="miter">
</g>
	<g id="gnuplot_plot_1" ><title>pages+cached+noexternal+nofonts+nosvg+noimg</title>
<g fill="none" color="black" stroke="currentColor" stroke-width="1.00" stroke-linecap="butt" stroke-linejoin="miter">
	<g transform="translate(504.2,431.9)" stroke="none" fill="black" font-family="Arial" font-size="12.00"  text-anchor="end">
		<text><tspan font-family="Arial" >pages+cached+noexternal+nofonts+nosvg+noimg</tspan></text>
	</g>
</g>
<g fill="none" color="black" stroke="currentColor" stroke-width="1.00" stroke-linecap="butt" stroke-linejoin="miter">
	<path stroke='rgb(148,   0, 211)'  d='M512.5,428.0 L554.7,428.0 M45.6,131.5 L51.4,144.8 L57.1,144.0 L62.9,148.3 L68.6,149.8 L74.4,140.0
		L80.1,127.8 L85.9,132.0 L91.6,125.5 L97.4,137.0 L103.1,107.1 L108.9,135.4 L114.6,116.9 L120.4,128.0
		L126.1,121.5 L131.9,153.4 L137.6,134.7 L143.4,137.0 L149.1,130.1 L154.9,126.8 L160.6,136.4 L166.4,138.5
		L172.1,106.8 L177.9,133.0 L183.6,154.0 L189.4,114.9 L195.1,150.3 L200.9,137.1 L206.6,122.2 L212.4,147.0
		L218.1,145.8 L223.9,116.0 L229.6,128.7 L235.4,130.8 L241.2,139.3 L246.9,134.5 L252.7,137.2 L258.4,146.4
		L264.2,125.8 L269.9,124.7 L275.7,122.5 L281.4,126.6 L287.2,139.5 L292.9,148.3 L298.7,129.6 L304.4,122.4
		L310.2,141.9 L315.9,124.6 L321.7,148.8 L327.4,133.7 L333.2,145.2 L338.9,140.1 L344.7,86.6 L350.4,125.2
		L356.2,140.5 L361.9,137.7 L367.7,137.7 L373.4,128.0 L379.2,144.9 L384.9,142.4 L390.7,105.1 L396.4,135.2
		L402.2,120.2 L407.9,124.2 L413.7,117.1 L419.4,149.6 L425.2,114.9 L431.0,158.2 L436.7,129.4 L442.5,111.0
		L448.2,84.6 L454.0,136.7 L459.7,129.5 L465.5,29.7 L471.2,126.9 L477.0,132.5 L482.7,126.5 L488.5,150.3
		L494.2,122.6 L500.0,149.8 L505.7,134.6 L511.5,127.7 L517.2,142.6 L523.0,147.2 L528.7,122.0 L534.5,130.8
		L540.2,130.9 L546.0,139.6 L551.7,141.1 L557.5,138.7 L563.2,141.4 L569.0,124.5 L574.7,125.2 L580.5,113.9
		L586.2,136.1 L592.0,150.2 L597.7,122.2 L603.5,146.4 L609.2,122.5 L615.0,130.5  '/></g>
	</g>
	<g id="gnuplot_plot_2" ><title>pages+cached+noexternal+nofonts+nosvg+noimg+nocss</title>
<g fill="none" color="black" stroke="currentColor" stroke-width="1.00" stroke-linecap="butt" stroke-linejoin="miter">
	<g transform="translate(504.2,449.9)" stroke="none" fill="black" font-family="Arial" font-size="12.00"  text-anchor="end">
		<text><tspan font-family="Arial" >pages+cached+noexternal+nofonts+nosvg+noimg+nocss</tspan></text>
	</g>
</g>
<g fill="none" color="black" stroke="currentColor" stroke-width="1.00" stroke-linecap="butt" stroke-linejoin="miter">
	<path stroke='rgb(  0, 158, 115)'  d='M512.5,446.0 L554.7,446.0 M45.6,369.7 L51.4,356.1 L57.1,362.2 L62.9,362.9 L68.6,356.9 L74.4,348.7
		L80.1,365.1 L85.9,367.1 L91.6,371.4 L97.4,354.2 L103.1,357.0 L108.9,369.6 L114.6,364.5 L120.4,384.8
		L126.1,364.7 L131.9,344.8 L137.6,368.5 L143.4,348.9 L149.1,342.8 L154.9,355.8 L160.6,25.3 L166.4,362.4
		L172.1,359.1 L177.9,359.9 L183.6,368.2 L189.4,372.5 L195.1,350.4 L200.9,362.4 L206.6,350.1 L212.4,368.6
		L218.1,361.9 L223.9,361.3 L229.6,360.9 L235.4,361.6 L241.2,372.5 L246.9,358.0 L252.7,367.7 L258.4,366.9
		L264.2,364.2 L269.9,363.3 L275.7,359.2 L281.4,378.6 L287.2,358.3 L292.9,358.5 L298.7,356.6 L304.4,348.6
		L310.2,358.8 L315.9,372.3 L321.7,355.1 L327.4,376.1 L333.2,359.4 L338.9,366.4 L344.7,351.5 L350.4,352.8
		L356.2,355.3 L361.9,358.2 L367.7,369.6 L373.4,371.3 L379.2,367.0 L384.9,349.1 L390.7,382.7 L396.4,371.7
		L402.2,343.0 L407.9,376.1 L413.7,370.0 L419.4,358.7 L425.2,360.4 L431.0,352.2 L436.7,357.4 L442.5,350.0
		L448.2,349.8 L454.0,376.7 L459.7,358.3 L465.5,370.4 L471.2,358.6 L477.0,371.5 L482.7,347.9 L488.5,364.3
		L494.2,377.1 L500.0,369.5 L505.7,364.8 L511.5,361.3 L517.2,348.3 L523.0,346.0 L528.7,354.7 L534.5,375.8
		L540.2,364.5 L546.0,356.3 L551.7,348.8 L557.5,353.6 L563.2,368.1 L569.0,367.0 L574.7,365.5 L580.5,362.3
		L586.2,358.3 L592.0,371.9 L597.7,363.3 L603.5,376.6 L609.2,342.1 L615.0,365.2  '/></g>
	</g>
	<g id="gnuplot_plot_3" ><title>score p10=1282</title>
<g fill="none" color="black" stroke="currentColor" stroke-width="1.00" stroke-linecap="butt" stroke-linejoin="miter">
	<g transform="translate(504.2,467.9)" stroke="none" fill="black" font-family="Arial" font-size="12.00"  text-anchor="end">
		<text><tspan font-family="Arial" >score p10=1282</tspan></text>
	</g>
</g>
<g fill="none" color="black" stroke="currentColor" stroke-width="1.00" stroke-linecap="butt" stroke-linejoin="miter">
	<path stroke='rgb( 86, 180, 233)'  d='M512.5,464.0 L554.7,464.0  '/></g>
	</g>
	<g id="gnuplot_plot_4" ><title>score median=3500</title>
<g fill="none" color="black" stroke="currentColor" stroke-width="1.00" stroke-linecap="butt" stroke-linejoin="miter">
	<g transform="translate(504.2,485.9)" stroke="none" fill="black" font-family="Arial" font-size="12.00"  text-anchor="end">
		<text><tspan font-family="Arial" >score median=3500</tspan></text>
	</g>
</g>
<g fill="none" color="black" stroke="currentColor" stroke-width="1.00" stroke-linecap="butt" stroke-linejoin="miter">
	<path stroke='rgb(230, 159,   0)'  d='M512.5,482.0 L554.7,482.0  '/></g>
	</g>
<g fill="none" color="#FFFFFF" stroke="rgb(230, 159,   0)" stroke-width="2.00" stroke-linecap="butt" stroke-linejoin="miter">
</g>
<g fill="none" color="black" stroke="currentColor" stroke-width="2.00" stroke-linecap="butt" stroke-linejoin="miter">
</g>
<g fill="none" color="black" stroke="black" stroke-width="1.00" stroke-linecap="butt" stroke-linejoin="miter">
</g>
<g fill="none" color="black" stroke="currentColor" stroke-width="1.00" stroke-linecap="butt" stroke-linejoin="miter">
	<path stroke='black'  d='M45.6,18.1 L45.6,392.0 L615.0,392.0 L615.0,18.1 L45.6,18.1 Z  '/></g>
<g fill="none" color="black" stroke="currentColor" stroke-width="1.00" stroke-linecap="butt" stroke-linejoin="miter">
</g>
</g>
</svg>
